X: 096
T: Lady Charlotte Bruce's Strathspey
R: strathspey
Q: "Slow"
B: William Shepherd "1st Collection" 1793 p.9 #6
F: http://imslp.org/wiki/File:PMLP73094-Shepherd_Collections_HMT.pdf
C: William Shepherd (17??-1812)
Z: 2012 John Chambers <jc:trillian.mit.edu>
M: C
L: 1/16
K: A
E2 \
A3B {AB}c2A2 e3cA3E | F2Bc (dc).B.A G3BB3c |\
A3B {AB}c2A2 e3cA3E | F2Bc (dc).B.A E2A2 A2 :|
c2 |\
A3Tce3c a3cTe3c | f2d2e2A2 G2B2TB2c2 |\
A3Tce3c a3cTe3c | f3de3E F3AA3c |
A3ce3a (ag).f.g. a2e2 | f3dc2A2 BAGF EDCB, |\
.C2.A2.D2.B2 .E2.c2.F2.d2 | dcBA GFED C2A,2 A,2 |]
